!!!COM: Mozart, Wolfgang Amadeus
!!!OPR: Quartet in D Major
!!!OTL:
!!!OMV: 3
!!!SCT: K 285
!!!SCA: Chronologisch-thematisches Verzeichnis sämtlicher Tonwerke Wolfgang Amade Mozarts (L. von Köchel; 1862, 2/1905, 3/1937, 1947)
!!!YOR: Breitkopf & Härtel Edition
!!!EED: Frances Bennion
!!!ENC: Frances Bennion
!!!CDT: 1756/1/27/-1791/12/5/
!!!OCY: Österreich
!!!YEC: Copyright (c) 1994, 2000 Center for Computer Assisted Research in the Humanities
!!!YEM: Rights to all derivative editions reserved.
!!!YEM: Refer to licensing agreement for further details.
!!!YEN: United States of America
**kern	**kern	**kern	**kern
*k[f#c#]	*k[f#c#]	*k[f#c#]	*k[f#c#]
*D:	*D:	*D:	*D:
*clefG	*clefG	*clefF	*clefC
*M2/4	*M2/4	*M2/4	*M2/4
*tb16	*tb16	*tb16	*tb16
=1	=1	=1	=1
4.aa	16f#	4d	2r
.	16d	.	.
.	16f#	.	.
.	16d	.	.
.	16f#	4r	.
.	16d	.	.
8ddd	16f#	.	.
.	16d	.	.
=2	=2	=2	=2
8ccc#	16g	4d	2r
.	16d	.	.
8bb	16g	.	.
.	16d	.	.
4aa	16f#	4r	.
.	16d	.	.
.	16f#	.	.
.	16d	.	.
=3	=3	=3	=3
16gg#	16f#	4d	2r
16aa	16d	.	.
16gg#	16f#	.	.
16aa	16d	.	.
16gg#	16f#	8r	.
16aa	16d	.	.
16bb	16f#	8d	.
16aa	16d	.	.
=4	=4	=4	=4
8aa	16e	4A	2r
.	16c#	.	.
8gg	16e	.	.
.	16c#	.	.
4ff#	16d	4D	.
.	16A	.	.
.	16d	.	.
.	16A	.	.
=5	=5	=5	=5
4dd	16a	4F#	2r
.	16g	.	.
.	16f#	.	.
.	16e	.	.
8dd	16d	8F#	.
.	16c#	.	.
8dd	16B	8F#	.
.	16A	.	.
=6	=6	=6	=6
4.ee	16B	4.G	2r
.	16c#	.	.
.	16d	.	.
.	16e	.	.
.	16f#	.	.
.	16g	.	.
16ff#	16a	16F#	.
16gg	16b	16E	.
=7	=7	=7	=7
8aa	16f#	4A	2r
.	16a	.	.
8gg	16e	.	.
.	16a	.	.
8ff#	16d	8A	.
.	16a	.	.
8ee	16c#	8A	.
.	16a	.	.
=8	=8	=8	=8
8dd	16f#	8d	2r
.	16d	.	.
8a	16f#	8A	.
.	16f#	.	.
8f#	16d	8F#	.
.	16A	.	.
8d	16f#	8D	.
.	16f#	.	.
=9	=9	=9	=9
4.aa	4.a	16f#	4D
.	.	16d	.
.	.	16f#	.
.	.	16d	.
.	.	16f#	4r
.	.	16d	.
8ddd	8dd	16f#	.
.	.	16d	.
=10	=10	=10	=10
8ccc#	8cc#	16g	4D
.	.	16d	.
8bb	8b	16g	.
.	.	16d	.
4aa	4a	16f#	4r
.	.	16d	.
.	.	16f#	.
.	.	16d	.
=11	=11	=11	=11
16gg#	16g#	16e#	4D
16aa	16a	16f#	.
16gg#	16g#	16e#	.
16aa	16a	16f#	.
16gg#	16g#	16e#	8r
16aa	16a	16f#	.
16bb	16b	16g	8D
16aa	16a	16f#	.
=12	=12	=12	=12
8aa	8a	16e	4AA
.	.	16d	.
8gg	8g	16c#	.
.	.	16e	.
4ff#	4f#	16d	4D
.	.	16A	.
.	.	16d	.
.	.	16A	.
=13	=13	=13	=13
4dd	4d	16a	4F#
.	.	16g	.
.	.	16f#	.
.	.	16e	.
8dd	8d	16d	8F#
.	.	16c#	.
8dd	8d	16B	8F#
.	.	16A	.
=14	=14	=14	=14
4.ee	4.e	16B	4.G
.	.	16c#	.
.	.	16d	.
.	.	16e	.
.	.	16f#	.
.	.	16g	.
16ff#	16f#	16a	16F#
16gg	16g	16b	16E
=15	=15	=15	=15
8aa	8a	16f#	4A
.	.	16a	.
8gg	8g	16e	.
.	.	16a	.
8ff#	8f#	16d	8A
.	.	16a	.
8ee	8e	16c#	8A
.	.	16a	.
=16	=16	=16	=16
8dd	4d	16f#	8d
.	.	16d	.
8a	.	16f#	8A
.	.	16f#	.
8f#	4r	16d	8F#
.	.	16A	.
8d	.	16f#	8D
.	.	16f#	.
=17	=17	=17	=17
2r	8r	16c#	4AA
.	.	16e	.
.	8gg	16A	.
.	.	16e	.
.	4gg	16c#	8r
.	.	16e	.
.	.	16A	8A
.	.	16e	.
=18	=18	=18	=18
2r	8r	16d	4D
.	.	16f#	.
.	16ff#	16A	.
.	16aa	16f#	.
.	4ddd	16d	8r
.	.	16f#	.
.	.	16A	8D
.	.	16f#	.
=19	=19	=19	=19
2r	8r	16c#	4AA
.	.	16e	.
.	8gg	16A	.
.	.	16e	.
.	4gg	16c#	8r
.	.	16e	.
.	.	16A	8A
.	.	16e	.
=20	=20	=20	=20
2r	8r	16d	4D
.	.	16f#	.
.	16ff#	16A	.
.	16aa	16f#	.
.	4ddd	16d	8r
.	.	16f#	.
.	.	16A	8D
.	.	16f#	.
=21	=21	=21	=21
4dd	4d	16a	4F#
.	.	16g	.
.	.	16f#	.
.	.	16e	.
8dd	8d	16d	8F#
.	.	16c#	.
8dd	8d	16B	8F#
.	.	16A	.
=22	=22	=22	=22
4.ee	4.e	16B	4.G
.	.	16c#	.
.	.	16d	.
.	.	16e	.
.	.	16f#	.
.	.	16g	.
16ff#	16f#	16a	16F#
16gg	16g	16b	16E
=23	=23	=23	=23
8aa	8a	8f#	8F#
8gg	8g	8e	8G
8ff#	8f#	8d	8A
8ee	8e	8c#	8A
=24	=24	=24	=24
8dd	4d	16d	8D
.	.	16A	.
8a	.	16f#	8A
.	.	16f#	.
8f#	4r	16d	8F#
.	.	16A	.
8d	.	16f#	8D
.	.	16f#	.
=25	=25	=25	=25
2r	8r	16c#	4AA
.	.	16e	.
.	8gg	16A	.
.	.	16e	.
.	4gg	16c#	8r
.	.	16e	.
.	.	16A	8A
.	.	16e	.
=26	=26	=26	=26
2r	8r	16d	4D
.	.	16f#	.
.	16ff#	16A	.
.	16aa	16f#	.
.	4ddd	16d	8r
.	.	16f#	.
.	.	16A	8D
.	.	16f#	.
=27	=27	=27	=27
2r	8r	16c#	4AA
.	.	16e	.
.	8gg	16A	.
.	.	16e	.
.	4gg	16c#	8r
.	.	16e	.
.	.	16A	8A
.	.	16e	.
=28	=28	=28	=28
2r	8r	16d	4D
.	.	16f#	.
.	16ff#	16A	.
.	16aa	16f#	.
.	4ddd	16d	8r
.	.	16f#	.
.	.	16A	8D
.	.	16f#	.
=29	=29	=29	=29
4dd	4d	16a	4F#
.	.	16g	.
.	.	16f#	.
.	.	16e	.
8dd	8d	16d	8F#
.	.	16c#	.
8dd	8d	16B	8F#
.	.	16A	.
=30	=30	=30	=30
4.ee	4.e	16B	16G
.	.	16A	16F#
.	.	16G	16E
.	.	16F#	16D
.	.	16E	8C#
.	.	16e	.
16ff#	16f#	16d	16D
16gg	16g	16c#	16E
=31	=31	=31	=31
8aa	8a	8d	8F#
8gg	8g	8e	8G
8ff#	8f#	8d	8A
8ee	8e	8c#	8AA
=32	=32	=32	=32
8dd	16f#	4d	8D
.	16A	.	.
8a	16f#	.	8A
.	16f#	.	.
8f#	16d	4r	8F#
.	16A	.	.
8d	16f#	.	8D
.	16f#	.	.
=33	=33	=33	=33
4ff#	8a	16f#	2r
.	.	16d	.
.	8f#	16a	.
.	.	16a	.
8ff#	8d	16f#	.
.	.	16d	.
16ee	8A	16a	.
16dd	.	16a	.
=34	=34	=34	=34
4cc#	16e	4a	8G
.	16A	.	.
.	16g	.	8E
.	16g	.	.
4r	16e	4r	8C#
.	16A	.	.
.	16g	.	8AA
.	16g	.	.
=35	=35	=35	=35
4gg	8ee	16c#	2r
.	.	16A	.
.	8cc#	16e	.
.	.	16e	.
8gg	8a	16c#	.
.	.	16A	.
16ff#	8g	16e	.
16ee	.	16e	.
=36	=36	=36	=36
4dd	16f#	4a	8d
.	16d	.	.
.	16a	.	8A
.	16a	.	.
4r	16f#	4r	8F#
.	16d	.	.
.	16a	.	8D
.	16a	.	.
=37	=37	=37	=37
4aa	16dd	8f#	2r
.	16a	.	.
.	16ff#	8d	.
.	16ff#	.	.
8aa	16ff#	8A	.
.	16a	.	.
16gg	16dd	8F#	.
16ff#	16dd	.	.
=38	=38	=38	=38
16ee	8dd	8B	8G
16dd#	.	.	.
16ee	4dd	4B	8G
16ff#	.	.	.
16gg	.	.	8G
16ff#	.	.	.
16gg	[8dd	[8b	8G
16aa	.	.	.
=39	=39	=39	=39
16aa#	8dd]	8b]	8G
16bb	.	.	.
16aa#	8dd	4e	8G
16bb	.	.	.
16aa	16cc#	.	8G
16gg	16b	.	.
16ff#	16a	8B	8G
16ee	16g	.	.
=40	=40	=40	=40
8dd	8f#	4A	8A
8cc#	8e	.	8A
4r	4r	4r	16E
.	.	.	16D
.	.	.	16C#
.	.	.	16BB
=41	=41	=41	=41
2r	4.ee	8c#	8AA
.	.	8c#	8AA
.	.	8c#	8AA
.	8aa	8c#	8AA
=42	=42	=42	=42
2r	8aa	4d	4BB
.	8gg#	.	.
.	8ff#	4r	4r
.	8ee	.	.
=43	=43	=43	=43
2r	4.dd	4.B	8GG#
.	.	.	8GG#
.	.	.	8GG#
.	8ff#	8d	8GG#
=44	=44	=44	=44
2r	8ff#	8d	4AA
.	8ee	8c#	.
.	8dd	8B	4r
.	8cc#	8A	.
=45	=45	=45	=45
4bb	4b	16a	8D#
.	.	16f#	.
.	.	16a	8D#
.	.	16f#	.
8bb	8b	16a	8D#
.	.	16f#	.
8bb	8b	16a	8D#
.	.	16f#	.
=46	=46	=46	=46
4.bb	4.b	16g#	8D
.	.	16e	.
.	.	16g#	8D
.	.	16e	.
.	.	16g#	8D
.	.	16e	.
16ccc#	16cc#	16g#	8D
16ddd	16dd	16e	.
=47	=47	=47	=47
16eee	8ee	8a	8C#
16ccc#	.	.	.
16bb	8r	8r	8r
16aa	.	.	.
16gg#	8dd	8b	8D
16ff#	.	.	.
16ddd	8r	8r	8r
16bb	.	.	.
=48	=48	=48	=48
16aa	8b 8e	8g#	8E
16gg#	.	.	.
16bb	4.r	4.r	4.r
16gg#	.	.	.
16ff#	.	.	.
16ee	.	.	.
16dd#	.	.	.
16ee	.	.	.
=49	=49	=49	=49
2r	[4ee	4.c#	8A
.	.	.	8A
.	16ee]	.	8A
.	16ff#	.	.
.	16gg#	8d#	8F#
.	16aa	.	.
=50	=50	=50	=50
2r	8aa	8e	4E
.	8gg#	8b	.
.	8ff#	8a	4r
.	8ee	8g#	.
=51	=51	=51	=51
2r	[4dd	4a	8F#
.	.	.	8F#
.	16dd]	16b	8G#
.	16dd	16b	.
.	16ee	16cc#	8G#
.	16ff#	16dd	.
=52	=52	=52	=52
2r	8ff#	8dd	4A
.	8ee	8cc#	.
.	8dd	8b	4r
.	8cc#	8a	.
=53	=53	=53	=53
4bb	4b	16a	8D#
.	.	16f#	.
.	.	16a	8D#
.	.	16f#	.
8bb	8b	16a	8D#
.	.	16f#	.
8bb	8b	16a	8D#
.	.	16f#	.
=54	=54	=54	=54
4.bb	4.b	16g#	8D
.	.	16e	.
.	.	16g#	8D
.	.	16e	.
.	.	16g#	8D
.	.	16e	.
16ccc#	16cc#	16g#	8D
16ddd	16dd	16e	.
=55	=55	=55	=55
16eee	8ee	8a	8C#
16ccc#	.	.	.
16bb	8dd	8b	8D
16ddd	.	.	.
16ccc#	8cc#	8a	8E
16aa	.	.	.
16bb	8b	8g#	8E
16gg#	.	.	.
=56	=56	=56	=56
16aa	4a	4a	4AA
16ee	.	.	.
16ff#	.	.	.
16gg#	.	.	.
16aa	4r	4r	4r
16bb	.	.	.
16ccc#	.	.	.
16ddd	.	.	.
=57	=57	=57	=57
4eee	16c#	8r	4A
.	16e	.	.
.	16e	8c#	.
.	16e	.	.
8ccc#	16a	8e	8r
.	16e	.	.
8aa	16e	8a	8c#
.	16e	.	.
=58	=58	=58	=58
8gg#	16d	8r	4B
.	16e	.	.
8bb	16e	8d	.
.	16e	.	.
4dd	16b	8G#	8r
.	16e	.	.
.	16e	8B	8G#
.	16e	.	.
=59	=59	=59	=59
8cc#	16a	8r	4A
.	16e	.	.
8ee	16e	8c#	.
.	16e	.	.
4a	16c#	8A	8r
.	16e	.	.
.	16e	8E	8C#
.	16e	.	.
=60	=60	=60	=60
8g#	16B	8r	4D
.	16e	.	.
8b	16e	8D	.
.	16e	.	.
4d	16b	8G#	8r
.	16e	.	.
.	16e	8B	8GG#
.	16e	.	.
=61	=61	=61	=61
2r	4ee	16c#	4AA
.	.	16e	.
.	.	16e	.
.	.	16e	.
.	8cc#	16a	8A
.	.	16e	.
.	8a	16e	8c#
.	.	16e	.
=62	=62	=62	=62
[2ee	8g#	16d	4B
.	.	16e	.
.	8b	16e	.
.	.	16e	.
.	4d	16G#	8E
.	.	16B	.
.	.	16B	8G#
.	.	16B	.
=63	=63	=63	=63
2ee_	16c#	16c#	4A
.	16A	16d	.
.	16A	16e	.
.	16A	16c#	.
.	16a	8A	8C#
.	16e	.	.
.	16c#	8A	8AA
.	16c#	.	.
=64	=64	=64	=64
2ee_	16d	8G#	4BB
.	16B	.	.
.	16G#	8B	.
.	16G#	.	.
.	16dd	4D	8GG#
.	16b	.	.
.	16g#	.	8EE
.	16g#	.	.
=65	=65	=65	=65
4ee]	8a	8C#	8AA
.	8aa	8c#	8A
4r	8gg#	8d	8B
.	8gg	8e	8c#
=66	=66	=66	=66
2r	8ee#	4a	2d
.	8ff#	.	.
.	8dd	8f#	.
.	16cc#	8g#	.
.	16b	.	.
=67	=67	=67	=67
2r	16dd#	8a	8c#
.	16ee	.	.
.	16cc#	4a	8F#
.	16a	.	.
.	4b	.	8D
.	.	8g#	8E
=68	=68	=68	=68
8r	8a	8a	8AA
8aa	8cc#	8A	4.r
8gg#	8dd	8B	.
8gg	8ee	8c#	.
=69	=69	=69	=69
8ee#	8a	8d	2r
8ff#	8a	8d	.
8dd	8a	8f#	.
16cc#	8a	8d#	.
16b	.	.	.
=70	=70	=70	=70
16cc#	8cc# 8e	8a 8e	4E
16ee	.	.	.
16aa	8cc# 8e	8a 8e	.
16ccc#	.	.	.
[4eee	8cc# 8e	8a 8e	4r
.	8cc# 8e	8a 8e	.
=71	=71	=71	=71
8eee]	8cc#	8e	4E
8ddd#	8cc	8f#	.
8ddd	8b	8g#	4r
8ccc#	8a	8a	.
=72	=72	=72	=72
[2bb	8a	8e	4E
.	8a	8e	.
.	8a	8e	4r
.	8a	8e	.
=73	=73	=73	=73
2bb]	8g#	8e 8d	8E
.	8g#	8e 8d	8E
.	8g#	8e 8d	8E
.	8g#	8e 8d	8E
=74	=74	=74	=74
8aa	8a	8c#	8AA
4aa	8g	8e	8C#
.	8f#	8d	8D
[8aa	8ff#	8c	8D#
=75	=75	=75	=75
8aa]	8ee	8c#	8E
16bb	8cc#	8A	8E
16ccc#	.	.	.
16ddd	8b	8G#	8E
16bb	.	.	.
16aa	8dd	8B	8E
16gg#	.	.	.
=76	=76	=76	=76
8aa	8cc#	8A	8AA
4aa	8gg	8e	8C#
.	8ff#	8d	8D
[8aa	8dd#	8cc	8F#
=77	=77	=77	=77
8aa]	8ee	8cc#	8E
16bb	8cc#	8a	8E
16ccc#	.	.	.
16ddd	8b	8g#	8E
16bb	.	.	.
16aa	8dd	8b	8E
16gg#	.	.	.
=78	=78	=78	=78
4aa	8cc#	8a	8AA
.	8A	4r	4r
4r	8B	.	.
.	8c#	8A	8G
=79	=79	=79	=79
2r	8d	8A	8F#
.	8e	8A	8C#
.	8f#	8A	8D
.	8g#	8d	8BB
=80	=80	=80	=80
8r	4a	4c#	4AA
8a	.	.	.
8b	8r	8r	4r
8cc#	8a	8g	.
=81	=81	=81	=81
8dd	8a	8f#	2r
8ee	8a	8c#	.
8ff#	8a	8d	.
8gg	8a	8e	.
=82	=82	=82	=82
4.aa	16f#	4d	2r
.	16d	.	.
.	16f#	.	.
.	16d	.	.
.	16f#	4r	.
.	16d	.	.
8ddd	16f#	.	.
.	16d	.	.
=83	=83	=83	=83
8ccc#	16g	4d	2r
.	16d	.	.
8bb	16g	.	.
.	16d	.	.
4aa	16f#	4r	.
.	16d	.	.
.	16f#	.	.
.	16d	.	.
=84	=84	=84	=84
16gg#	16f#	4d	2r
16aa	16d	.	.
16gg#	16f#	.	.
16aa	16d	.	.
16gg#	16f#	8r	.
16aa	16d	.	.
16bb	16f#	8d	.
16aa	16d	.	.
=85	=85	=85	=85
8aa	16e	4A	2r
.	16c#	.	.
8gg	16e	.	.
.	16c#	.	.
4ff#	16d	4D	.
.	16A	.	.
.	16d	.	.
.	16A	.	.
=86	=86	=86	=86
4dd	16a	4F#	2r
.	16g	.	.
.	16f#	.	.
.	16e	.	.
8dd	16d	8F#	.
.	16c#	.	.
8dd	16B	8F#	.
.	16A	.	.
=87	=87	=87	=87
4.ee	16B	4.G	2r
.	16c#	.	.
.	16d	.	.
.	16e	.	.
.	16f#	.	.
.	16g	.	.
16ff#	16a	16F#	.
16gg	16b	16E	.
=88	=88	=88	=88
8aa	16f#	4A	2r
.	16a	.	.
8gg	16e	.	.
.	16a	.	.
8ff#	16d	8A	.
.	16a	.	.
8ee	16c#	8A	.
.	16a	.	.
=89	=89	=89	=89
8dd	16f#	8d	2r
.	16d	.	.
8a	16f#	8A	.
.	16f#	.	.
8f#	16d	8F#	.
.	16A	.	.
8d	16f#	8D	.
.	16f#	.	.
=90	=90	=90	=90
4.aa	4.a	16f#	4D
.	.	16d	.
.	.	16f#	.
.	.	16d	.
.	.	16f#	4r
.	.	16d	.
8ddd	8dd	16f#	.
.	.	16d	.
=91	=91	=91	=91
8ccc#	8cc#	16g	4D
.	.	16d	.
8bb	8b	16g	.
.	.	16d	.
4aa	4a	16f#	4r
.	.	16d	.
.	.	16f#	.
.	.	16d	.
=92	=92	=92	=92
16gg#	16g#	16e#	4D
16aa	16a	16f#	.
16gg#	16g#	16e#	.
16aa	16a	16f#	.
16gg#	16g#	16e#	8r
16aa	16a	16f#	.
16bb	16b	16g	8D
16aa	16a	16f#	.
=93	=93	=93	=93
8aa	8a	16e	4AA
.	.	16d	.
8gg	8g	16c#	.
.	.	16e	.
4ff#	4f#	16d	4D
.	.	16A	.
.	.	16d	.
.	.	16A	.
=94	=94	=94	=94
4dd	4d	16a	4F#
.	.	16g	.
.	.	16f#	.
.	.	16e	.
8dd	8d	16d	8F#
.	.	16c#	.
8dd	8d	16B	8F#
.	.	16A	.
=95	=95	=95	=95
4.ee	4.e	16B	4.G
.	.	16c#	.
.	.	16d	.
.	.	16e	.
.	.	16f#	.
.	.	16g	.
16ff#	16f#	16a	16F#
16gg	16g	16b	16E
=96	=96	=96	=96
8aa	8a	16f#	4A
.	.	16a	.
8gg	8g	16e	.
.	.	16a	.
8ff#	8f#	16d	8A
.	.	16a	.
8ee	8e	16c#	8A
.	.	16a	.
=97	=97	=97	=97
8dd	4d	16f#	8d
.	.	16d	.
8a	.	16f#	8A
.	.	16f#	.
8f#	4r	16d	8F#
.	.	16A	.
8d	.	16f#	8D
.	.	16f#	.
=98	=98	=98	=98
2r	8r	16c#	4AA
.	.	16e	.
.	8gg	16A	.
.	.	16e	.
.	4gg	16c#	8r
.	.	16e	.
.	.	16A	8A
.	.	16e	.
=99	=99	=99	=99
2r	8r	16d	4D
.	.	16f#	.
.	16ff#	16A	.
.	16aa	16f#	.
.	4ddd	16d	8r
.	.	16f#	.
.	.	16A	8D
.	.	16f#	.
=100	=100	=100	=100
2r	8r	16c#	4AA
.	.	16e	.
.	8gg	16A	.
.	.	16e	.
.	4gg	16c#	8r
.	.	16e	.
.	.	16A	8A
.	.	16e	.
=101	=101	=101	=101
2r	8r	16d	4D
.	.	16f#	.
.	16ff#	16A	.
.	16aa	16f#	.
.	4ddd	16d	8r
.	.	16f#	.
.	.	16A	8D
.	.	16f#	.
=102	=102	=102	=102
4dd	4d	16a	4F#
.	.	16g	.
.	.	16f#	.
.	.	16e	.
8dd	8d	16d	8F#
.	.	16c#	.
8dd	8d	16B	8F#
.	.	16A	.
=103	=103	=103	=103
4.ee	4.e	16B	4.G
.	.	16c#	.
.	.	16d	.
.	.	16e	.
.	.	16f#	.
.	.	16g	.
16ff#	16f#	16a	16F#
16gg	16g	16b	16E
=104	=104	=104	=104
8aa	8a	8f#	8F#
8gg	8g	8e	8G
8ff#	8f#	8d	8A
8ee	8e	8c#	8A
=105	=105	=105	=105
8dd	4d	16d	8D
.	.	16A	.
8a	.	16f#	8A
.	.	16f#	.
8f#	4r	16d	8F#
.	.	16A	.
8d	.	16f#	8D
.	.	16f#	.
=106	=106	=106	=106
2r	8cc	16d	8c
.	.	16A	.
.	8a	16f#	8A
.	.	16f#	.
.	8f#	16d	8F#
.	.	16A	.
.	8c	16f#	8C
.	.	16f#	.
=107	=107	=107	=107
2r	8b	16d	8B
.	.	16B	.
.	8g	16g	8G
.	.	16g	.
.	8d	16d	8D
.	.	16B	.
.	8B	16g	8BB
.	.	16g	.
=108	=108	=108	=108
2r	8a	16c	8A
.	.	16A	.
.	8f#	16d	8F#
.	.	16d	.
.	8c	16c	8C
.	.	16A	.
.	8A	16d	8AA
.	.	16d	.
=109	=109	=109	=109
2g	8G	8B	4GG
.	8b	8d	.
.	8b	8d	4r
.	8b	8d	.
=110	=110	=110	=110
2ddd	8r	8r	4G
.	8g	8B	.
.	8g	8B	4r
.	8g	8B	.
=111	=111	=111	=111
16eee	8r	8r	4G
16ccc	.	.	.
16bb	8g 8G	8e 8c	.
16ccc	.	.	.
16bb	8g 8G	8e 8c	4r
16ccc	.	.	.
16ddd	8g 8G	8e 8c	.
16eee	.	.	.
=112	=112	=112	=112
4ddd	8g 8G	4d 4B	8r
.	8dd	.	8d
4r	8b	4r	8B
.	8g	.	8G
=113	=113	=113	=113
2r	8d	2D	8D
.	8d	.	8r
.	8f#	.	4D
.	8d	.	.
=114	=114	=114	=114
2r	8g	2cc	4E
.	8d	.	.
.	8a	.	4F#
.	8d	.	.
=115	=115	=115	=115
2r	8g	8b	8G
.	16f#	16a	8r
.	16g	16b	.
.	16b	16dd	8d
.	16g	16b	.
.	16a	16cc	8D
.	16f#	16a	.
=116	=116	=116	=116
2r	8g	8g	8G
.	8B	8G	8E
.	8c	8A	8C
.	16B	16G	8D
.	16A	16F#	.
=117	=117	=117	=117
4g	4G	4G	8GG
.	.	.	8G
4bb	4r	4r	8G
.	.	.	8G
=118	=118	=118	=118
4aa	4d	2r	8F#
.	.	.	8F#
16gg	4aa	.	8F#
16ff#	.	.	.
16ee	.	.	8F#
16dd#	.	.	.
=119	=119	=119	=119
16ee	4gg	4E	8E
16ff#	.	.	.
16gg	.	.	8E
16aa	.	.	.
8bb	4r	4g	8E
8bb	.	.	8E
=120	=120	=120	=120
4bb	4B	4f#	8D
.	.	.	8D
4b	4ff#	16e	8D
.	.	16d	.
.	.	16c	8D
.	.	16B	.
=121	=121	=121	=121
4e	4ee	16c	8C
.	.	16d	.
.	.	16e	8C
.	.	16f#	.
4ee	4r	8g	8C
.	.	8g	8C
=122	=122	=122	=122
4dd	4G	4g	8BB
.	.	.	8BB
16cc	[4dd	4G	8BB
16b	.	.	.
16a	.	.	8BB
16g	.	.	.
=123	=123	=123	=123
16f#	2dd]	8c	8AA
16g	.	.	.
16a	.	16f#	16A
16b	.	16g	16G
16cc	.	8a	8F#
16a	.	.	.
16b	.	8g	8G
16g	.	.	.
=124	=124	=124	=124
4b	4dd	4g	8D
.	.	.	8d
4a	4d	4f#	16d
.	.	.	16c
.	.	.	16B
.	.	.	16A
=125	=125	=125	=125
2r	8r	2G	4G
.	8b 8d	.	.
.	8b 8d	.	4r
.	8b 8d	.	.
=126	=126	=126	=126
2r	8r	2dd	4G
.	8g 8B	.	.
.	8g 8B	.	4r
.	8g 8B	.	.
=127	=127	=127	=127
2r	8r	16ee	4GG
.	.	16cc	.
.	8g 8c	16b	.
.	.	16cc	.
.	8g 8c	16b	4r
.	.	16cc	.
.	8g 8c	16dd	.
.	.	16ee	.
=128	=128	=128	=128
2r	8g 8B	4dd	8r
.	8dd	.	8D
.	8b	4r	8BB
.	8g	.	8GG
=129	=129	=129	=129
2d	8d	16D	8DD
.	.	16E	.
.	8r	16D	8r
.	.	16E	.
.	4f#	16D	4DD
.	.	16E	.
.	.	16D	.
.	.	16E	.
=130	=130	=130	=130
2ccc	4g	16D	4EE
.	.	16E	.
.	.	16D	.
.	.	16E	.
.	4a	16D	4FF#
.	.	16E	.
.	.	16D	.
.	.	16E	.
=131	=131	=131	=131
8bb	8g	8D	8GG
16aa	16f#	8r	8r
16bb	16g	.	.
16ddd	16b	8d	8D
16bb	16g	.	.
16ccc	16a	8d 8c	8D
16aa	16f#	.	.
=132	=132	=132	=132
4gg	8g	8d 8B	8GG
.	8B	8G	8E
4r	8c	8A	8C
.	16B	16G	8D
.	16A	16F#	.
=133	=133	=133	=133
2r	8G	16B	4GG
.	.	16G	.
.	8bb	16d	.
.	.	16d	.
.	4bb	16B	8r
.	.	16G	.
.	.	16d	8G
.	.	16d	.
=134	=134	=134	=134
2r	8r	16d	4F#
.	.	16A	.
.	16aa	16f#	.
.	16ff#	16f#	.
.	4ddd	16d	8r
.	.	16A	.
.	.	16f#	8F#
.	.	16f#	.
=135	=135	=135	=135
2r	8r	16f#	4D
.	.	16d	.
.	8aa	16a	.
.	.	16a	.
.	4aa	16f#	8r
.	.	16d	.
.	.	16a	8D
.	.	16a	.
=136	=136	=136	=136
2r	8r	16e	4C#
.	.	16A	.
.	16gg	16g	.
.	16ee	16g	.
.	4bb	16e	8r
.	.	16A	.
.	.	16g	8C#
.	.	16g	.
=137	=137	=137	=137
2r	8r	16c#	4AA
.	.	16A	.
.	8gg	16e	.
.	.	16e	.
.	4gg	16c#	8r
.	.	16A	.
.	.	16e	8AA
.	.	16e	.
=138	=138	=138	=138
2r	8r	16d	4D
.	.	16A	.
.	16ff#	16a	.
.	16dd	16a	.
.	8aa	16f#	8r
.	.	16d	.
.	8aa	16a	8A
.	.	16a	.
=139	=139	=139	=139
2r	8gg	8g	8G
.	8ff#	8f#	8F#
.	8ee	8e	8E
.	8dd	8d	8D
=140	=140	=140	=140
8r	16a	16c#	[2AA
.	16b-	16d	.
8aa	16a	16c#	.
.	16b-	16d	.
4aa	16a	16c#	.
.	16g	16e	.
.	16f	16d	.
.	16e	16c#	.
=141	=141	=141	=141
8r	16f	16d	2AA_
.	16e	16c#	.
16ddd	16d	16B	.
16bb	16f	16d	.
4gg#	16e	16c#	.
.	16f	16d	.
.	16d	16B	.
.	16e	16c#	.
=142	=142	=142	=142
8r	16c#	16A	2AA_
.	16d	16B	.
8aa	16e	16c#	.
.	16f	16d	.
4aa	16g	16e	.
.	16b-	16g	.
.	16a	16f	.
.	16g	16e	.
=143	=143	=143	=143
8r	16f	16d	2AA_
.	16e	16c#	.
16ddd	16d	16B	.
16bb	16f	16d	.
4gg#	16e	16c#	.
.	16f	16d	.
.	16d	16B	.
.	16e	16c#	.
=144	=144	=144	=144
8r	4c#	4A	4AA]
8aa	.	.	.
4aa	8r	8r	8r
.	8a	8e 8c#	8A
=145	=145	=145	=145
8r	4b-	4e 4c#	4G
8bb-	.	.	.
4bb-	8r	8r	8r
.	8b-	8e 8c#	8G
=146	=146	=146	=146
8r	4a	4d 4A	4F
8aa	.	.	.
4aa	8r	8r	8r
.	8a	8d 8A	8F
=147	=147	=147	=147
8r	4g	4e 4A	4C#
8gg	.	.	.
4gg	8r	8r	8r
.	8g	8e 8A	8C#
=148	=148	=148	=148
8r	4f	4d 4A	4D
8ff	.	.	.
8ff	4r	4r	4r
16ee	.	.	.
16dd	.	.	.
=149	=149	=149	=149
4ddd	8r	2d	2B-
.	8f	.	.
4gg#	8f	.	.
.	16e	.	.
.	16d	.	.
=150	=150	=150	=150
8aa	8c#	8e	8A
8aa#	8r	8r	8r
[4bb	[4g	[4e	[4C#
=151	=151	=151	=151
16bb]	16g]	8e]	8C#]
16aa#	16f#	.	.
16bb	16g	4.r	4.r
16aa#	16f#	.	.
16bb	16g	.	.
16aa#	16f#	.	.
16bb	16g	.	.
16aa#	16f#	.	.
=152	=152	=152	=152
16bb	16g	2r	2r
16ccc#	16a	.	.
16ddd	16b	.	.
16ccc#	16a	.	.
16bb	16g	.	.
16aa	16f#	.	.
16gg	16e	.	.
16ff#	16d#	.	.
=153	=153	=153	=153
16gg	16e	2r	2r
16aa	16f#	.	.
16bb	16g	.	.
16aa	16f#	.	.
16gg	16e	.	.
16ff#	16d	.	.
16ee	16c#	.	.
16dd#	16B	.	.
=154	=154	=154	=154
8ee	8c#	4r	4r
8ff#	8d#	.	.
[4gg	[4e	[4c#	[4AA
=155	=155	=155	=155
16gg]	16e]	8c#]	8AA]
16ff#	16d#	.	.
16gg	16e	4.r	4.r
16ff#	16d#	.	.
16gg	16e	.	.
16ff#	16d#	.	.
16gg	16e	.	.
16ff#	16d#	.	.
=156	=156	=156	=156
16gg	16e	2r	2r
16aa	16f#	.	.
16bb	16g	.	.
16aa	16f#	.	.
16gg	16e	.	.
16ff#	16d	.	.
16ee	16c#	.	.
16dd	16B	.	.
=157	=157	=157	=157
16ee	16c#	2r	2r
16ff#	16d	.	.
16gg	16e	.	.
16ff#	16d	.	.
16ee	16c#	.	.
16dd	16B	.	.
16cc#	16A	.	.
16b	16G#	.	.
=158	=158	=158	=158
8cc#	8A	2r	2r
8dd	8B	.	.
8dd#	8B#	.	.
8ee	8c#	.	.
=159	=159	=159	=159
8ff	8d	2r	2r
8ff#	8d#	.	.
8gg	8e	.	.
8gg#	8e#	.	.
=160	=160	=160	=160
4.aa	16f#	4d	2r
.	16d	.	.
.	16f#	.	.
.	16d	.	.
.	16f#	4r	.
.	16d	.	.
8ddd	16f#	.	.
.	16d	.	.
=161	=161	=161	=161
8ccc#	16g	4d	2r
.	16d	.	.
8bb	16g	.	.
.	16d	.	.
4aa	16f#	4r	.
.	16d	.	.
.	16f#	.	.
.	16d	.	.
=162	=162	=162	=162
16gg#	16f#	4d	2r
16aa	16d	.	.
16gg#	16f#	.	.
16aa	16d	.	.
16gg#	16f#	8r	.
16aa	16d	.	.
16bb	16f#	8d	.
16aa	16d	.	.
=163	=163	=163	=163
8aa	16e	4A	2r
.	16c#	.	.
8gg	16e	.	.
.	16c#	.	.
4ff#	16d	4D	.
.	16A	.	.
.	16d	.	.
.	16A	.	.
=164	=164	=164	=164
4dd	16a	4F#	2r
.	16g	.	.
.	16f#	.	.
.	16e	.	.
8dd	16d	8F#	.
.	16c#	.	.
8dd	16B	8F#	.
.	16A	.	.
=165	=165	=165	=165
4.ee	16B	4.G	2r
.	16c#	.	.
.	16d	.	.
.	16e	.	.
.	16f#	.	.
.	16g	.	.
16ff#	16a	16F#	.
16gg	16b	16E	.
=166	=166	=166	=166
8aa	16f#	4A	2r
.	16a	.	.
8gg	16e	.	.
.	16a	.	.
8ff#	16d	8A	.
.	16a	.	.
8ee	16c#	8A	.
.	16a	.	.
=167	=167	=167	=167
8dd	16f#	8d	2r
.	16d	.	.
8a	16f#	8A	.
.	16f#	.	.
8f#	16d	8F#	.
.	16A	.	.
8d	16f#	8D	.
.	16f#	.	.
=168	=168	=168	=168
4.aa	4.a	16f#	4D
.	.	16d	.
.	.	16f#	.
.	.	16d	.
.	.	16f#	4r
.	.	16d	.
8ddd	8dd	16f#	.
.	.	16d	.
=169	=169	=169	=169
8ccc#	8cc#	16g	4D
.	.	16d	.
8bb	8b	16g	.
.	.	16d	.
4aa	4a	16f#	4r
.	.	16d	.
.	.	16f#	.
.	.	16d	.
=170	=170	=170	=170
16gg#	16g#	16e#	4D
16aa	16a	16f#	.
16gg#	16g#	16e#	.
16aa	16a	16f#	.
16gg#	16g#	16e#	8r
16aa	16a	16f#	.
16bb	16b	16g	8D
16aa	16a	16f#	.
=171	=171	=171	=171
8aa	8a	16e	4AA
.	.	16d	.
8gg	8g	16c#	.
.	.	16e	.
4ff#	4f#	16d	4D
.	.	16A	.
.	.	16d	.
.	.	16A	.
=172	=172	=172	=172
4dd	4d	16a	4F#
.	.	16g	.
.	.	16f#	.
.	.	16e	.
8dd	8d	16d	8F#
.	.	16c#	.
8dd	8d	16B	8F#
.	.	16A	.
=173	=173	=173	=173
4.ee	4.e	16B	4.G
.	.	16c#	.
.	.	16d	.
.	.	16e	.
.	.	16f#	.
.	.	16g	.
16ff#	16f#	16a	16F#
16gg	16g	16b	16E
=174	=174	=174	=174
8aa	8a	16f#	4A
.	.	16a	.
8gg	8g	16e	.
.	.	16a	.
8ff#	8f#	16d	8A
.	.	16a	.
8ee	8e	16c#	8A
.	.	16a	.
=175	=175	=175	=175
8dd	4d	16f#	8d
.	.	16d	.
8a	.	16f#	8A
.	.	16f#	.
8f#	4r	16d	8F#
.	.	16A	.
8d	.	16f#	8D
.	.	16f#	.
=176	=176	=176	=176
2r	8r	16c#	4AA
.	.	16e	.
.	8gg	16A	.
.	.	16e	.
.	4gg	16c#	8r
.	.	16e	.
.	.	16A	8A
.	.	16e	.
=177	=177	=177	=177
2r	8r	16d	4D
.	.	16f#	.
.	16ff#	16A	.
.	16aa	16f#	.
.	4ddd	16d	8r
.	.	16f#	.
.	.	16A	8D
.	.	16f#	.
=178	=178	=178	=178
2r	8r	16c#	4AA
.	.	16e	.
.	8gg	16A	.
.	.	16e	.
.	4gg	16c#	8r
.	.	16e	.
.	.	16A	8A
.	.	16e	.
=179	=179	=179	=179
2r	8r	16d	4D
.	.	16f#	.
.	16ff#	16A	.
.	16aa	16f#	.
.	4ddd	16d	8r
.	.	16f#	.
.	.	16A	8D
.	.	16f#	.
=180	=180	=180	=180
4dd	4d	16a	4F#
.	.	16g	.
.	.	16f#	.
.	.	16e	.
8dd	8d	16d	8F#
.	.	16c#	.
8dd	8d	16B	8F#
.	.	16A	.
=181	=181	=181	=181
4.ee	4.e	16B	4.G
.	.	16c#	.
.	.	16d	.
.	.	16e	.
.	.	16f#	.
.	.	16g	.
16ff#	16f#	16a	16F#
16gg	16g	16b	16E
=182	=182	=182	=182
8aa	8a	8f#	8F#
8gg	8g	8e	8G
8ff#	8f#	8d	8A
8ee	8e	8c#	8A
=183	=183	=183	=183
8dd	4d	16d	8D
.	.	16A	.
8a	.	16f#	8A
.	.	16f#	.
8f#	4r	16d	8F#
.	.	16A	.
8d	.	16f#	8D
.	.	16f#	.
=184	=184	=184	=184
8r	16d	4.r	4F#
.	16A	.	.
8cc	16a	.	.
.	16a	.	.
4cc	16d	.	8r
.	16A	.	.
.	16a	8d	8F#
.	16a	.	.
=185	=185	=185	=185
8r	16d	4d	4G
.	16B	.	.
16b	16g	.	.
16dd	16g	.	.
4gg	16g	8r	8r
.	16d	.	.
.	16b	16d	8G
.	16b	16g	.
=186	=186	=186	=186
8r	16e	4b	4G#
.	16B	.	.
8dd	16b	.	.
.	16b	.	.
4dd	16e	8r	8r
.	16B	.	.
.	16b	8e	8G#
.	16b	.	.
=187	=187	=187	=187
8r	16e	4e	4A
.	16c#	.	.
16cc#	16a	.	.
16ee	16a	.	.
4aa	8a	16c#	16A
.	.	16B	16G
.	8r	16A	16F#
.	.	16G	16E
=188	=188	=188	=188
2r	4.a	8F#	8D
.	.	8F#	8D
.	.	8F#	8D
.	8dd	8F#	8D
=189	=189	=189	=189
2r	8dd	4G	4E
.	8cc#	.	.
.	8b	4r	4r
.	8a	.	.
=190	=190	=190	=190
2r	4.g	4.e	8C#
.	.	.	8C#
.	.	.	8C#
.	8b	8g	8C#
=191	=191	=191	=191
2r	8b	8g	4D
.	8a	8f#	.
.	8g	8e	4r
.	8f#	8d	.
=192	=192	=192	=192
4ee	4e	16d	8GG#
.	.	16B	.
.	.	16d	8GG#
.	.	16B	.
8ee	8e	16d	8GG#
.	.	16B	.
8ee	8e	16d	8GG#
.	.	16B	.
=193	=193	=193	=193
4.ee	4.e	16c#	8GG
.	.	16A	.
.	.	16c#	8GG
.	.	16A	.
.	.	16c#	8GG
.	.	16A	.
16ff#	16f#	16c#	8GG
16gg	16g	16A	.
=194	=194	=194	=194
16aa	8a	8d	8FF#
16ff#	.	.	.
16ee	8r	8r	8r
16dd	.	.	.
16cc#	8g	8e 8B	8GG
16b	.	.	.
16gg	8r	8r	8r
16ee	.	.	.
=195	=195	=195	=195
16dd	8e 8A	8c#	8AA
16cc#	.	.	.
16ff#	4.r	4.r	4.r
16ee	.	.	.
16dd	.	.	.
16cc#	.	.	.
16b	.	.	.
16a	.	.	.
=196	=196	=196	=196
4.aa	4.a	4.f#	8d
.	.	.	8d
.	.	.	8d
8ddd	8dd	8g#	8B
=197	=197	=197	=197
8ddd	8dd	8a	4A
8ccc#	8cc#	8e	.
8bb	8b	8d	4r
8aa	8a	8c#	.
=198	=198	=198	=198
4.gg	4.g	4d	8B
.	.	.	8B
.	.	8e	8c#
16aa	16a	16f#	8c#
16bb	16b	16g	.
=199	=199	=199	=199
8bb	8b	8g	4d
8aa	8a	8f#	.
8gg	8g	8e	4r
8ff#	8f#	8d	.
=200	=200	=200	=200
4ee	4e	16d	8G#
.	.	16B	.
.	.	16d	8G#
.	.	16B	.
[4eee	8ee	16d	8G#
.	.	16B	.
.	8ee	16d	8G#
.	.	16B	.
=201	=201	=201	=201
4eee]	4.ee	16c#	8G
.	.	16A	.
.	.	16c#	8G
.	.	16A	.
8ccc#	.	16c#	8G
.	.	16A	.
16bb	16ff#	16c#	8G
16aa	16gg	16A	.
=202	=202	=202	=202
16ddd	8aa	8f#	8F#
16aa	.	.	.
16bb	8gg	8e	8G
16gg	.	.	.
16ff#	8ff#	8d	8A
16aa	.	.	.
16gg	8ee	8c#	8AA
16ee	.	.	.
=203	=203	=203	=203
4dd	16dd	4d	4D
.	16a	.	.
.	16b	.	.
.	16cc#	.	.
4r	16dd	4r	4r
.	16ee	.	.
.	16ff#	.	.
.	16gg	.	.
=204	=204	=204	=204
2r	4aa	16F#	4D
.	.	16A	.
.	.	16A	.
.	.	16A	.
.	8ff#	16d	8r
.	.	16A	.
.	8dd	16A	8F#
.	.	16A	.
=205	=205	=205	=205
2r	8cc#	16G	4E
.	.	16A	.
.	8ee	16A	.
.	.	16A	.
.	4g	16E	8r
.	.	16A	.
.	.	16A	8C#
.	.	16A	.
=206	=206	=206	=206
2r	16f#	8f#	4D
.	16A	.	.
.	16A	8a	.
.	16A	.	.
.	16A	4d	8r
.	16f#	.	.
.	16a	.	8F#
.	16a	.	.
=207	=207	=207	=207
2r	16e	8c#	4G
.	16a	.	.
.	16a	8e	.
.	16a	.	.
.	16e	4G	8r
.	16A	.	.
.	16A	.	8C#
.	16A	.	.
=208	=208	=208	=208
[2aa	4a	16F	4.D
.	.	16A	.
.	.	16A	.
.	.	16A	.
.	8f	16A	.
.	.	16d	.
.	8d	16a	8F
.	.	16a	.
=209	=209	=209	=209
2aa]	8c#	16a	4E
.	.	16e	.
.	8e	16c#	.
.	.	16c#	.
.	4G	16e	8C#
.	.	16A	.
.	.	16E	8AA
.	.	16E	.
=210	=210	=210	=210
2aa	16d	16F	4D
.	16A	16G	.
.	16A	16A	.
.	16A	16F	.
.	16f	8D	8r
.	16d	.	.
.	16f	8D	8D
.	16f	.	.
=211	=211	=211	=211
[2aa	16e	16G	8C#
.	16c#	16E	.
.	16G	16c#	8E
.	16G	16c#	.
.	16g	16A	4GG
.	16e	16c#	.
.	16c#	16e	.
.	16c#	16e	.
=212	=212	=212	=212
8aa]	8d	8A	8FF#
8ddd	8f#	8d	4.r
8ccc#	8g	8e	.
8ccc	8a	8f#	.
=213	=213	=213	=213
8aa#	4dd	8g	2r
8bb	.	8g	.
8gg	8b	8g	.
16ff#	8cc#	8g	.
16ee	.	.	.
=214	=214	=214	=214
16gg#	8dd	8f#	2r
16aa	.	.	.
16ff#	4dd	8b	.
16dd	.	.	.
4ee	.	8g	.
.	8cc#	8a	.
=215	=215	=215	=215
4dd	8dd	8d	8r
.	8dd	8f#	8D
4r	8cc#	8g	8E
.	8cc	8a	8F#
=216	=216	=216	=216
2r	8a#	8d	8G
.	8b	4d	8G
.	8g	.	8B
.	16f#	8d	8G#
.	16e	.	.
=217	=217	=217	=217
16r	8f# 8A	8d 8A	4A
16d	.	.	.
16e	8aa	8f#	.
16f#	.	.	.
16g	8aa	8f#	4r
16a	.	.	.
16b	8aa	8f#	.
16cc#	.	.	.
=218	=218	=218	=218
16dd	8aa	8f#	2r
16ee	.	.	.
16ff#	8ff#	8d	.
16gg	.	.	.
16aa	8ff#	8a	.
16bb	.	.	.
16ccc#	8dd	8f#	.
16ddd	.	.	.
=219	=219	=219	=219
[2ccc#	8g 8A	8e 8c#	4AA
.	8gg	8e	.
.	8gg	8e	4r
.	8gg	8e	.
=220	=220	=220	=220
2ccc#]	8gg	8e	2r
.	8ee	8g	.
.	8ee	8g	.
.	8cc#	8e	.
=221	=221	=221	=221
8ddd	8dd	8f#	8D
4dd	8cc	8a	8F#
.	8b	8g	8G
[8dd	8g#	8f	8B
=222	=222	=222	=222
8dd]	8a	8f#	8A
16ee	8f#	8d	8A
16ff#	.	.	.
16gg	8e	8c#	8AA
16ee	.	.	.
16dd	8g	8e	8AA
16cc#	.	.	.
=223	=223	=223	=223
8dd	8f#	8d	8D
4dd	8ff#	8a	8c
.	8gg	8b	8B
[8dd	8gg#	8f	8B-
=224	=224	=224	=224
8dd]	8aa	8f#	8A
16ee	8f#	8d	8A
16ff#	.	.	.
16gg	8e	8c#	8AA
16ee	.	.	.
16dd	8g	8e	8AA
16cc#	.	.	.
=225	=225	=225	=225
4dd	16f#	16d	16D
.	16d	16D	16D
.	16e	16E	16E
.	16f#	16F#	16F#
4r	16g	16G	16G
.	16a	16A	16A
.	16b	16B	16B
.	16cc#	16c#	16c#
=226	=226	=226	=226
2r	16dd	16d	16d
.	16cc#	16c#	16c#
.	16dd	16d	16d
.	16cc#	16c#	16c#
.	16dd	16d	16d
.	16cc#	16c#	16c#
.	16dd	16d	16d
.	16cc#	16c#	16c#
=227	=227	=227	=227
2r	16dd	16d	4d
.	16f#	16d	.
.	16g	16e	.
.	16a	16f#	.
.	16b	16g	4r
.	16cc#	16a	.
.	16dd	16b	.
.	16ee	16cc#	.
=228	=228	=228	=228
2r	16ff#	16dd	16d
.	16gg	16ee	16c#
.	16ff#	16dd	16d
.	16gg	16ee	16c#
.	16ff#	16dd	16d
.	16gg	16ee	16c#
.	16ff#	16dd	16d
.	16gg	16ee	16c#
=229	=229	=229	=229
16r	16ff#	4dd	4d
16a	16f#	.	.
16b	16g	.	.
16cc#	16a	.	.
16dd	16b	4r	4r
16ee	16cc#	.	.
16ff#	16dd	.	.
16gg	16ee	.	.
=230	=230	=230	=230
16aa	16ff#	16d	2r
16bb	16gg	16c#	.
16aa	16ff#	16d	.
16bb	16gg	16c#	.
16aa	16ff#	16d	.
16bb	16gg	16c#	.
16aa	16ff#	16d	.
16bb	16gg	16c#	.
=231	=231	=231	=231
4.aa	8ff#	4d	2r
.	16f#	.	.
.	16d	.	.
.	16f#	4r	.
.	16d	.	.
8ddd	16f#	.	.
.	16d	.	.
=232	=232	=232	=232
8ccc#	16g	4d	2r
.	16d	.	.
8bb	16g	.	.
.	16d	.	.
4aa	16f#	4r	.
.	16d	.	.
.	16f#	.	.
.	16d	.	.
=233	=233	=233	=233
16gg#	16f#	4d	2r
16aa	16d	.	.
16gg#	16f#	.	.
16aa	16d	.	.
16gg#	16f#	8r	.
16aa	16d	.	.
16bb	16f#	8d	.
16aa	16d	.	.
=234	=234	=234	=234
8aa	16e	4A	2r
.	16c#	.	.
8gg	16e	.	.
.	16c#	.	.
4ff#	16d	4D	.
.	16A	.	.
.	16d	.	.
.	16A	.	.
=235	=235	=235	=235
4dd	16a	4F#	2r
.	16g	.	.
.	16f#	.	.
.	16e	.	.
8dd	16d	8F#	.
.	16c#	.	.
8dd	16B	8F#	.
.	16A	.	.
=236	=236	=236	=236
4.ee	16B	4.G	2r
.	16c#	.	.
.	16d	.	.
.	16e	.	.
.	16f#	.	.
.	16g	.	.
16ff#	16a	16F#	.
16gg	16b	16E	.
=237	=237	=237	=237
8aa	16cc#	8A	2r
.	16a	.	.
8gg	16ee	8A	.
.	16a	.	.
8ff#	16dd	8A	.
.	16a	.	.
8ee	16cc#	8A	.
.	16a	.	.
=238	=238	=238	=238
8dd	16f#	8d	2r
.	16a	.	.
8a	16f#	8A	.
.	16f#	.	.
8f#	16d	8F#	.
.	16A	.	.
8d	16f#	8D	.
.	16f#	.	.
=239	=239	=239	=239
4.aa	4.a	16f#	4D
.	.	16d	.
.	.	16f#	.
.	.	16d	.
.	.	16f#	4r
.	.	16d	.
8ddd	8dd	16f#	.
.	.	16d	.
=240	=240	=240	=240
8ccc#	8cc#	16g	4D
.	.	16d	.
8bb	8b	16g	.
.	.	16d	.
4aa	4a	16f#	4r
.	.	16d	.
.	.	16f#	.
.	.	16d	.
=241	=241	=241	=241
16gg#	16g#	16f#	4D
16aa	16a	16d	.
16gg#	16g#	16f#	.
16aa	16a	16d	.
16gg#	16g#	16f#	8r
16aa	16a	16d	.
16bb	16b	16f#	8D
16aa	16a	16d	.
=242	=242	=242	=242
8aa	8a	16e	4AA
.	.	16c#	.
8gg	8g	16e	.
.	.	16c#	.
4ff#	4f#	16d	4D
.	.	16A	.
.	.	16d	.
.	.	16A	.
=243	=243	=243	=243
4dd	4d	16a	4F#
.	.	16g	.
.	.	16f#	.
.	.	16e	.
8dd	8d	16d	8F#
.	.	16c#	.
8dd	8d	16B	8F#
.	.	16A	.
=244	=244	=244	=244
4.ee	4.e	16B	16G
.	.	16A	16F#
.	.	16G	16E
.	.	16F#	16D
.	.	16E	8C#
.	.	16e	.
16ff#	16f#	16d	16D
16gg	16g	16c#	16E
=245	=245	=245	=245
8aa	8a	8f#	8F#
8gg	8g	8e	8G
8ff#	8f#	8d	8A
8ee	8e	8c#	8AA
=246	=246	=246	=246
16dd	8d	4a	8F#
16ff#	.	.	.
16aa	4dd	.	8F#
16ddd	.	.	.
16aa#	.	8g	8G
16bb	.	.	.
16gg	[8dd	8b	8G
16ee	.	.	.
=247	=247	=247	=247
16gg#	8dd]	8a	8A
16aa	.	.	.
16ff#	8f#	8d	8A
16dd	.	.	.
16ff#	8e	8c#	8A
16gg	.	.	.
16ee	8a	8e	8G
16cc#	.	.	.
=248	=248	=248	=248
16dd	16a	16f#	8F#
16ff#	16a	16f#	.
16aa	16a	16f#	8F#
16ddd	16a	16f#	.
16aa#	16dd	16b 16g	8G
16bb	16dd	16b 16g	.
16gg	16dd	16b 16g	8G
16ee	16dd	16b 16g	.
=249	=249	=249	=249
16gg#	16dd 16d	16a 16f#	8A
16aa	16dd 16d	16a 16f#	.
16ff#	16dd 16d	16a 16f#	8A
16dd	16dd 16d	16a 16f#	.
16ff#	16cc# 16e	16a 16g	8AA
16gg	16cc# 16e	16a 16g	.
16ee	16cc# 16e	16a 16g	8AA
16cc#	16cc# 16e	16a 16g	.
=250	=250	=250	=250
4dd	4dd 4d	4a 4f#	4D
4ddd	4ff# 4a 4d	4a 4f#	4D
=251	=251	=251	=251
4ddd	4ff# 4a 4d	4a 4f#	4D
4r	4r	4r	4r
==	==	==	==
*-	*-	*-	*-
!!!RWG1: This file contains only pitch and duration data.
!!!RWG2: Transposing instruments are not transposed.
!!!RWG3: Spines may have incompatible meters.
!!!RWG4: Durations of rests and tied notes may be interpreted.
!!!RWG: Key is interpreted using the Humdrum key tool.
!!!AFT: stage1
!!!END: 1997/04/15
!!format changes:
!!content changes:
!!public access: complete
!!!KEY: 1298667590
!!!EMD: Converted from MuseData to Humdrum Dec 16, 2000, by Andreas Kornstaedt using muse2kern.
